svg/leaves2.svg

<?xml version="1.0" encoding="UTF-8" standalone="no"?>
<!-- Created with Inkscape (http://www.inkscape.org/) -->

<svg
   width="32"
   height="32"
   viewBox="0 0 8.4666666 8.4666668"
   version="1.1"
   id="svg5"
   inkscape:version="1.1.2 (b8e25be8, 2022-02-05)"
   sodipodi:docname="leaves2.svg"
   xmlns:inkscape="http://www.inkscape.org/namespaces/inkscape"
   xmlns:sodipodi="http://sodipodi.sourceforge.net/DTD/sodipodi-0.dtd"
   xmlns="http://www.w3.org/2000/svg"
   xmlns:svg="http://www.w3.org/2000/svg"
   xmlns:rdf="http://www.w3.org/1999/02/22-rdf-syntax-ns#"
   xmlns:cc="http://creativecommons.org/ns#">
  <sodipodi:namedview
     id="namedview7"
     pagecolor="#ffffff"
     bordercolor="#111111"
     borderopacity="1"
     inkscape:pageshadow="0"
     inkscape:pageopacity="0"
     inkscape:pagecheckerboard="1"
     inkscape:document-units="mm"
     showgrid="true"
     width="32mm"
     units="px"
     objecttolerance="10000"
     guidetolerance="10000"
     inkscape:snap-perpendicular="true"
     inkscape:snap-tangential="true"
     inkscape:zoom="34.90625"
     inkscape:cx="8.6374217"
     inkscape:cy="16.229185"
     inkscape:window-width="2560"
     inkscape:window-height="1301"
     inkscape:window-x="0"
     inkscape:window-y="25"
     inkscape:window-maximized="0"
     inkscape:current-layer="layer1">
    <inkscape:grid
       type="xygrid"
       id="grid9"
       units="px"
       empspacing="2" />
  </sodipodi:namedview>
  <defs
     id="defs2" />
  <g
     inkscape:label="Layer 1"
     inkscape:groupmode="layer"
     id="layer1">
    <path
       id="rect6018"
       style="fill:#000000;fill-opacity:1;stroke:none;stroke-width:0.999999"
       d="M 0 20 L 0 26 L 6 26 L 6 32 L 12 32 L 12 26 L 12 20 L 6 20 L 0 20 z "
       transform="scale(0.26458333)" />
    <rect
       style="fill:#000000;fill-opacity:1;stroke:none;stroke-width:0.249451"
       id="rect6022"
       width="2.116667"
       height="2.1166666"
       x="3.175"
       y="3.175" />
    <path
       id="path6105"
       style="fill:#000000;fill-opacity:1;stroke:none;stroke-width:0.264583"
       d="m 8.466667,5.2916666 v 1.5875 h -1.5875 v 1.5875 H 5.2916669 v -1.5875 -1.5875 H 6.879167 Z" />
    <path
       id="path6107"
       style="fill:#000000;fill-opacity:1;stroke:none;stroke-width:0.264583"
       d="m 0,3.1749996 v -1.5875 H 1.5875 V -3.3666667e-7 H 3.175 V 1.5874996 v 1.5875 H 1.5875 Z" />
    <path
       id="path6109"
       style="fill:#000000;fill-opacity:1;stroke:none;stroke-width:0.264583"
       d="m 8.466667,3.1749996 v -1.5875 h -1.5875 V -3.3666667e-7 H 5.2916669 V 1.5874996 v 1.5875 H 6.879167 Z" />
  </g>
  <metadata
     id="metadata33">
    <rdf:RDF>
      <cc:Work
         rdf:about="">
        <cc:license
           rdf:resource="http://creativecommons.org/licenses/by-sa/4.0/" />
      </cc:Work>
      <cc:License
         rdf:about="http://creativecommons.org/licenses/by-sa/4.0/">
        <cc:permits
           rdf:resource="http://creativecommons.org/ns#Reproduction" />
        <cc:permits
           rdf:resource="http://creativecommons.org/ns#Distribution" />
        <cc:requires
           rdf:resource="http://creativecommons.org/ns#Notice" />
        <cc:requires
           rdf:resource="http://creativecommons.org/ns#Attribution" />
        <cc:permits
           rdf:resource="http://creativecommons.org/ns#DerivativeWorks" />
        <cc:requires
           rdf:resource="http://creativecommons.org/ns#ShareAlike" />
      </cc:License>
    </rdf:RDF>
  </metadata>
</svg>

<svg width="32" height="32" viewBox="0 0 8.467 8.467" xmlns="http://www.w3.org/2000/svg"><path style="fill:#000;fill-opacity:1;stroke:none;stroke-width:.999999" d="M0 20v6h6v6h6V20H0z" transform="scale(.26458)"/><path style="fill:#000;fill-opacity:1;stroke:none;stroke-width:.249451" d="M3.175 3.175h2.117v2.117H3.175z"/><path style="fill:#000;fill-opacity:1;stroke:none;stroke-width:.264583" d="M8.467 5.292v1.587H6.879v1.588H5.292V5.292h1.587ZM0 3.175V1.587h1.587V0h1.588v3.175H1.588ZM8.467 3.175V1.587H6.879V0H5.292v3.175h1.587Z"/></svg>
